svg/u1f9ad.svg

<svg viewBox="0 0 128 128" xmlns="http://www.w3.org/2000/svg">
  <g>
    <path d="M103.24,43.26c0.09-1.8-1.64-10.16-8.63-13.52c-1.86-0.9-6.69-1.38-5.59,3.66 c1.03,4.69,1.58,11.9,1.04,16.51c-0.54,4.55-2.62,9.92-8.01,12.19c-4.68,1.97-10.02,1.21-13.93-2.13 c-5.2-4.45-6.81-11.47-6.87-18.05c-0.17-17.75-3.71-26.95-17.99-30.12c-4.2-0.93-9.37-0.8-13.66,0.52 c-5.26,1.55-12.49,4.49-19.14,16.02c-6.68,11.57-7.84,27.11-5.72,40c7.16,43.53,42.02,54.32,67.34,46.64 c28.11-8.52,35.96-32.27,38.37-46.49c1.32-7.76,2.4-15.1,7.17-21.71c2.94-4.07,8.98-8.93,5.01-11.53 C114.83,30.15,105.24,38.84,103.24,43.26z" fill="#CAD8DD"/>
    <g>
      <circle cx="28.8" cy="22.66" fill="#212121" r="3.29"/>
      <circle cx="50.08" cy="27.46" fill="#212121" r="3.29"/>
    </g>
    <g>
      <path d="M42,31.69c-0.26,1.15-3,2.11-4.45,1.78c-1.45-0.33-3.52-2.37-3.26-3.52c0.26-1.15,2.15-1.48,4.27-1 C40.69,29.43,42.26,30.53,42,31.69z" fill="#212121"/>
      <path d="M45.28,39c-0.31,0.14-1.94,1.02-4.03,0.27c-2.2-0.79-2.51-2.01-2.84-2.88 c-0.46-1.21,0.38-4.41,0.38-4.41l-0.85-0.23l-0.87-0.16c0,0-0.62,3.25-1.55,4.15c-0.67,0.64-1.47,1.61-3.8,1.39 c-2.21-0.22-3.31-1.71-3.53-1.97c-0.22-0.26-0.97-0.37-0.71,0.52c0.27,0.94,1.21,2.56,4.07,3.21c2.47,0.56,4.51-0.7,5.02-1.06 c0.31,0.54,1.61,2.55,4.08,3.11c2.86,0.65,4.41-0.42,5.05-1.15C46.31,39.08,45.59,38.85,45.28,39z" fill="#212121"/>
    </g>
    <g>
      <g>
        <path d="M15.15,29.71c0.68-0.93,1.72-1.59,2.83-1.97c1.11-0.39,2.3-0.52,3.46-0.49 c1.16,0.04,2.31,0.24,3.41,0.59c1.09,0.35,2.18,0.83,3.03,1.61c-1.06-0.42-2.14-0.65-3.22-0.85c-1.08-0.19-2.17-0.33-3.26-0.35 C19.24,28.18,17.08,28.47,15.15,29.71z" fill="#212121"/>
        <path d="M13.38,36.06c1.21-2.33,3.4-4.21,5.98-5.07c1.29-0.42,2.67-0.59,4.01-0.44 c1.34,0.13,2.63,0.58,3.76,1.25c-2.55-0.63-5.1-0.67-7.46,0.13C17.31,32.71,15.23,34.21,13.38,36.06z" fill="#212121"/>
        <path d="M16.87,39.1c0.21-0.96,0.68-1.86,1.27-2.67c0.6-0.81,1.36-1.49,2.23-2.03 c0.43-0.27,0.91-0.46,1.37-0.66c0.49-0.13,0.97-0.3,1.48-0.33c1-0.15,2.01-0.01,2.95,0.26c-0.98,0.14-1.91,0.23-2.79,0.5 c-0.89,0.24-1.72,0.6-2.49,1.08C19.32,36.19,18.04,37.54,16.87,39.1z" fill="#212121"/>
      </g>
      <g>
        <path d="M59.39,39.68c-1.21-1.95-3.04-3.13-5.02-4.01c-0.99-0.45-2.03-0.78-3.09-1.08 c-1.07-0.28-2.14-0.53-3.27-0.61c1.1-0.34,2.29-0.31,3.43-0.16c1.14,0.15,2.27,0.47,3.34,0.93c1.06,0.48,2.08,1.1,2.91,1.93 C58.51,37.5,59.17,38.55,59.39,39.68z" fill="#212121"/>
        <path d="M58.08,46.4c-0.73-2.51-1.83-4.82-3.54-6.64c-1.68-1.84-3.94-3.03-6.48-3.7 c1.31-0.05,2.66,0.18,3.9,0.71c1.25,0.51,2.38,1.32,3.31,2.31C57.12,41.08,58.14,43.77,58.08,46.4z" fill="#212121"/>
        <path d="M53.32,47.21c-0.39-1.91-0.97-3.68-1.99-5.19c-0.49-0.76-1.09-1.45-1.79-2.05 c-0.68-0.63-1.48-1.11-2.31-1.65c0.96,0.15,1.94,0.46,2.77,1.03c0.45,0.24,0.81,0.61,1.2,0.94c0.34,0.38,0.69,0.75,0.96,1.19 c0.55,0.85,0.95,1.8,1.14,2.79C53.5,45.23,53.54,46.24,53.32,47.21z" fill="#212121"/>
      </g>
    </g>
    <g>
      <path d="M32.25,17.35c-0.16,0.49-0.13,1.06,0.16,1.48c0.36,0.53,1.07,0.75,1.7,0.66 c1.44-0.2,3.65-2.1,2.19-3.53C34.96,14.66,32.76,15.79,32.25,17.35z" fill="#A8BAC1"/>
      <path d="M49.24,21.18c-0.07,0.51-0.34,1.01-0.78,1.27c-0.55,0.32-1.28,0.22-1.82-0.13 c-1.22-0.79-2.4-3.47-0.46-4.13C47.95,17.59,49.45,19.55,49.24,21.18z" fill="#A8BAC1"/>
    </g>
    <radialGradient id="SVGID_1_" cx="34.7393" cy="55.447" gradientTransform="matrix(0.9434 0.3318 -0.2479 0.7049 15.715 4.8349)" gradientUnits="userSpaceOnUse" r="137.2468">
      <stop offset="0.0874" stop-color="#CFD8DC" stop-opacity="0"/>
      <stop offset="0.9587" stop-color="#6899AD"/>
    </radialGradient>
    <path d="M98.67,74.14c-4.57,3.46-20.06,12.28-37.69-6.09c-6.81-7.1-12.94-11.54-24.31-8.97 C22.94,62.19,20,70.34,17.64,76.91c-2.73,7.63-2.73,12.15-1.57,17.52c11.42,21.72,37.4,26.2,56.01,20.56 c28.11-8.52,35.96-32.27,38.37-46.49c0.81-4.78,1.54-9.41,3.09-13.8c0.13-0.61,0.31-1.2,0.54-1.77 C113.61,53.44,107.59,67.38,98.67,74.14z" fill="url(#SVGID_1_)"/>
    <path d="M111.15,35.53c-3.21,1.69-5.85,4.37-7.23,6.51C99.17,26.88,91.56,28.99,90.7,29.29 c-0.97,0.35-1.55,1-1.76,1.93c1-0.94,4.31-2.02,8.15,2.16c2,2.42,3.28,6.63,3.5,9.66c0.61,8.07-1.99,13.33-3.45,15.6 c-0.28,0.43,0.38,1.05,0.89,0.67c1.53-1.14,3.25-3.79,4.58-7.8c1.44-4.33,3.35-11.04,10.81-14.49c3.68-1.7,6.75-1.75,8.59-1.14 c1.4,0.47,1.93,1.51,1.93,1.51c0-1.08-0.61-2.2-1.65-2.8C121.64,34.21,117.72,32.05,111.15,35.53z" fill="#78909C"/>
    <path d="M58.08,56.22c2.91,11.84-1.18,15.31-1.26,26.46c-0.07,8.86,2.78,17.83,9.51,15.79 c5.03-1.52,12.49-21.04,8.83-30.88" fill="#CAD8DD"/>
    <path d="M59.6,58.07c1.93,9.91-2.12,18.1-1.21,28.44c0.71,8.7,4.35,10.72,5.96,10.8 c1.74,0.23,3.1-1.2,4.14-2.76c1.19-1.78,2.65-4.25,3.91-7.3c2.93-7.35,3.35-16,2.89-19.07c-0.22-0.95,0.56-1.04,0.84-0.17 c0.29,0.9,0.84,3.45,0.48,9.79c-0.25,3.47-0.95,6.91-2.03,10.23c-0.53,1.66-2.14,6.13-4.79,9.53c-0.61,0.73-1.95,2.92-5.54,2.65 c-1.08-0.03-7.58-0.97-8.66-13.42c-0.13-1.77-0.39-5.97,0.58-10.51c0.6-3.46,1.69-6.68,2.12-9.97c0.42-2.68,0.12-5.41,0.03-8.19 C58.28,57.08,59.35,56.8,59.6,58.07z" fill="#728E9C"/>
    <path d="M18.31,65.27c2.89,10.91,23.71,14.25,28.76,32.13c1.54,5.46-2.37,7.48-5.89,7.48 c-19.2,0-28.96-15.8-28.96-15.8" fill="#CAD8DD"/>
    <path d="M19.17,67.08c1.78,2.45,3.99,4.53,6.45,6.25c3.03,2.12,6.27,4.01,9.35,6.23 c3.11,2.18,6.05,4.73,8.51,7.79c5.21,7.59,5.62,12.33,5.2,14.01c-0.28,1.18-0.98,2.32-1.91,3.1c-1.66,1.32-4.26,1.94-6.25,1.81 c-3.89-0.13-7.78-0.91-11.36-2.38c-3.6-1.44-6.89-3.55-9.76-6.06c-2-1.79-3.51-3.4-4.94-5.65c-0.77-1.22-1.21-2.65-0.13-1.43 c6.66,7.58,12.22,9.8,15.64,10.96c3.43,1.12,7,1.79,10.6,1.74c0.47,0,3.12-0.15,4.3-1.19c0.99-0.85,1.26-2.2,0.94-3.77 c-0.98-4.14-3.89-11.05-12.99-17.64C29.08,78.15,20,72,18.31,67.34C17.92,66.26,18.69,66.41,19.17,67.08z" fill="#728E9C"/>
  </g>
</svg>

<svg viewBox="0 0 128 128" xmlns="http://www.w3.org/2000/svg">
  <defs>
    <radialGradient id="SVGID_1_" cx="51.167508" cy="54.573146" gradientTransform="matrix(0.9434 0.3318 -0.2479 0.7049 0 0)" gradientUnits="userSpaceOnUse" r="137.2468">
      <stop offset="0.0874" stop-color="#CFD8DC" stop-opacity="0"/>
      <stop offset="0.9587" stop-color="#6899AD"/>
    </radialGradient>
  </defs>
  <path d="M103.24,43.26 C103.33,41.46 101.6,33.1 94.61,29.74 C92.75,28.84 87.92,28.36 89.02,33.4 C90.05,38.09 90.6,45.3 90.06,49.91 C89.52,54.46 87.44,59.83 82.05,62.1 C77.37,64.07 72.03,63.31 68.12,59.97 C62.92,55.52 61.31,48.5 61.25,41.92 C61.08,24.17 57.54,14.97 43.26,11.8 C39.06,10.87 33.89,11 29.6,12.32 C24.34,13.87 17.11,16.81 10.46,28.34 C3.78,39.91 2.62,55.45 4.74,68.34 C11.9,111.87 46.76,122.66 72.08,114.98 C100.19,106.46 108.04,82.71 110.45,68.49 C111.77,60.73 112.85,53.39 117.62,46.78 C120.56,42.71 126.6,37.85 122.63,35.25 C114.83,30.15 105.24,38.84 103.24,43.26 Z" fill="#CAD8DD"/>
  <path d="M32.09,22.66 A3.29 3.29 0 1 1 25.51,22.66 A3.29 3.29 0 1 1 32.09,22.66 Z" fill="#212121"/>
  <path d="M53.37,27.46 A3.29 3.29 0 1 1 46.79,27.46 A3.29 3.29 0 1 1 53.37,27.46 Z" fill="#212121"/>
  <path d="M42,31.69 C41.74,32.84 39,33.8 37.55,33.47 C36.1,33.14 34.03,31.1 34.29,29.95 C34.55,28.8 36.44,28.47 38.56,28.95 C40.69,29.43 42.26,30.53 42,31.69 Z" fill="#212121"/>
  <path d="M45.28,39 C44.97,39.14 43.34,40.02 41.25,39.27 C39.05,38.48 38.74,37.26 38.41,36.39 C37.95,35.18 38.79,31.98 38.79,31.98 L37.94,31.75 L37.07,31.59 C37.07,31.59 36.45,34.84 35.52,35.74 C34.85,36.38 34.05,37.35 31.72,37.13 C29.51,36.91 28.41,35.42 28.19,35.16 C27.97,34.9 27.22,34.79 27.48,35.68 C27.75,36.62 28.69,38.24 31.55,38.89 C34.02,39.45 36.06,38.19 36.57,37.83 C36.88,38.37 38.18,40.38 40.65,40.94 C43.51,41.59 45.06,40.52 45.7,39.79 C46.31,39.08 45.59,38.85 45.28,39 Z" fill="#212121"/>
  <path d="M15.15,29.71 C15.83,28.78 16.87,28.12 17.98,27.74 C19.09,27.35 20.28,27.22 21.44,27.25 C22.6,27.29 23.75,27.49 24.85,27.84 C25.94,28.19 27.03,28.67 27.88,29.45 C26.82,29.03 25.74,28.8 24.66,28.6 C23.58,28.41 22.49,28.27 21.4,28.25 C19.24,28.18 17.08,28.47 15.15,29.71 Z" fill="#212121"/>
  <path d="M13.38,36.06 C14.59,33.73 16.78,31.85 19.36,30.99 C20.65,30.57 22.03,30.4 23.37,30.55 C24.71,30.68 26,31.13 27.13,31.8 C24.58,31.17 22.03,31.13 19.67,31.93 C17.31,32.71 15.23,34.21 13.38,36.06 Z" fill="#212121"/>
  <path d="M16.87,39.1 C17.08,38.14 17.55,37.24 18.14,36.43 C18.74,35.62 19.5,34.94 20.37,34.4 C20.8,34.13 21.28,33.94 21.74,33.74 C22.23,33.61 22.71,33.44 23.22,33.41 C24.22,33.26 25.23,33.4 26.17,33.67 C25.19,33.81 24.26,33.9 23.38,34.17 C22.49,34.41 21.66,34.77 20.89,35.25 C19.32,36.19 18.04,37.54 16.87,39.1 Z" fill="#212121"/>
  <path d="M59.39,39.68 C58.18,37.73 56.35,36.55 54.37,35.67 C53.38,35.22 52.34,34.89 51.28,34.59 C50.21,34.31 49.14,34.06 48.01,33.98 C49.11,33.64 50.3,33.67 51.44,33.82 C52.58,33.97 53.71,34.29 54.78,34.75 C55.84,35.23 56.86,35.85 57.69,36.68 C58.51,37.5 59.17,38.55 59.39,39.68 Z" fill="#212121"/>
  <path d="M58.08,46.4 C57.35,43.89 56.25,41.58 54.54,39.76 C52.86,37.92 50.6,36.73 48.06,36.06 C49.37,36.01 50.72,36.24 51.96,36.77 C53.21,37.28 54.34,38.09 55.27,39.08 C57.12,41.08 58.14,43.77 58.08,46.4 Z" fill="#212121"/>
  <path d="M53.32,47.21 C52.93,45.3 52.35,43.53 51.33,42.02 C50.84,41.26 50.24,40.57 49.54,39.97 C48.86,39.34 48.06,38.86 47.23,38.32 C48.19,38.47 49.17,38.78 50,39.35 C50.45,39.59 50.81,39.96 51.2,40.29 C51.54,40.67 51.89,41.04 52.16,41.48 C52.71,42.33 53.11,43.28 53.3,44.27 C53.5,45.23 53.54,46.24 53.32,47.21 Z" fill="#212121"/>
  <path d="M32.25,17.35 C32.09,17.84 32.12,18.41 32.41,18.83 C32.77,19.36 33.48,19.58 34.11,19.49 C35.55,19.29 37.76,17.39 36.3,15.96 C34.96,14.66 32.76,15.79 32.25,17.35 Z" fill="#A8BAC1"/>
  <path d="M49.24,21.18 C49.17,21.69 48.9,22.19 48.46,22.45 C47.91,22.77 47.18,22.67 46.64,22.32 C45.42,21.53 44.24,18.85 46.18,18.19 C47.95,17.59 49.45,19.55 49.24,21.18 Z" fill="#A8BAC1"/>
  <path d="M98.67,74.14 C94.1,77.6 78.61,86.42 60.98,68.05 C54.17,60.95 48.04,56.51 36.67,59.08 C22.94,62.19 20,70.34 17.64,76.91 C14.91,84.54 14.91,89.06 16.07,94.43 C27.49,116.15 53.47,120.63 72.08,114.99 C100.19,106.47 108.04,82.72 110.45,68.5 C111.26,63.72 111.99,59.09 113.54,54.7 C113.67,54.09 113.85,53.5 114.08,52.93 C113.61,53.44 107.59,67.38 98.67,74.14 Z" fill="url(#SVGID_1_)"/>
  <path d="M111.15,35.53 C107.94,37.22 105.3,39.9 103.92,42.04 C99.17,26.88 91.56,28.99 90.7,29.29 C89.73,29.64 89.15,30.29 88.94,31.22 C89.94,30.28 93.25,29.2 97.09,33.38 C99.09,35.8 100.37,40.01 100.59,43.04 C101.2,51.11 98.6,56.37 97.14,58.64 C96.86,59.07 97.52,59.69 98.03,59.31 C99.56,58.17 101.28,55.52 102.61,51.51 C104.05,47.18 105.96,40.47 113.42,37.02 C117.1,35.32 120.17,35.27 122.01,35.88 C123.41,36.35 123.94,37.39 123.94,37.39 C123.94,36.31 123.33,35.19 122.29,34.59 C121.64,34.21 117.72,32.05 111.15,35.53 Z" fill="#78909C"/>
  <path d="M58.08,56.22 C60.99,68.06 56.9,71.53 56.82,82.68 C56.75,91.54 59.6,100.51 66.33,98.47 C71.36,96.95 78.82,77.43 75.16,67.59" fill="#CAD8DD"/>
  <path d="M59.6,58.07 C61.53,67.98 57.48,76.17 58.39,86.51 C59.1,95.21 62.74,97.23 64.35,97.31 C66.09,97.54 67.45,96.11 68.49,94.55 C69.68,92.77 71.14,90.3 72.4,87.25 C75.33,79.9 75.75,71.25 75.29,68.18 C75.07,67.23 75.85,67.14 76.13,68.01 C76.42,68.91 76.97,71.46 76.61,77.8 C76.36,81.27 75.66,84.71 74.58,88.03 C74.05,89.69 72.44,94.16 69.79,97.56 C69.18,98.29 67.84,100.48 64.25,100.21 C63.17,100.18 56.67,99.24 55.59,86.79 C55.46,85.02 55.2,80.82 56.17,76.28 C56.77,72.82 57.86,69.6 58.29,66.31 C58.71,63.63 58.41,60.9 58.32,58.12 C58.28,57.08 59.35,56.8 59.6,58.07 Z" fill="#728E9C"/>
  <path d="M18.31,65.27 C21.2,76.18 42.02,79.52 47.07,97.4 C48.61,102.86 44.7,104.88 41.18,104.88 C21.98,104.88 12.22,89.08 12.22,89.08" fill="#CAD8DD"/>
  <path d="M19.17,67.08 C20.95,69.53 23.16,71.61 25.62,73.33 C28.65,75.45 31.89,77.34 34.97,79.56 C38.08,81.74 41.02,84.29 43.48,87.35 C48.69,94.94 49.1,99.68 48.68,101.36 C48.4,102.54 47.7,103.68 46.77,104.46 C45.11,105.78 42.51,106.4 40.52,106.27 C36.63,106.14 32.74,105.36 29.16,103.89 C25.56,102.45 22.27,100.34 19.4,97.83 C17.4,96.04 15.89,94.43 14.46,92.18 C13.69,90.96 13.25,89.53 14.33,90.75 C20.99,98.33 26.55,100.55 29.97,101.71 C33.4,102.83 36.97,103.5 40.57,103.45 C41.04,103.45 43.69,103.3 44.87,102.26 C45.86,101.41 46.13,100.06 45.81,98.49 C44.83,94.35 41.92,87.44 32.82,80.85 C29.08,78.15 20,72 18.31,67.34 C17.92,66.26 18.69,66.41 19.17,67.08 Z" fill="#728E9C"/>
</svg>
